X:508
T:Willy Roy
C:John Duffey
N:Transcribed by Jason Hannan
R:bluegrass
L:1/8
Q:1/4=130
M:4/4
K:C
z2 [ec][ec] [ed][ed] [ee][ee] | "C"[g/e/][g/e/][g/e/][g/e/] [g/e/][g/e/][g/e/][g/e/] [g/e/][g/e/][g/e/][g/e/] [g/e/][g/e/]d/d/ | 
[c/G/][c/G/][c/G/][c/G/] [c/G/][c/G/][c/G/][c/G/] d/d/c/c/ c/c/c/c/ | "F"[A/F/][A/F/][A/F/][A/F/] [A/F/][A/F/][A/F/][A/F/] [A/F/][A/F/][A/F/][A/F/] [A/F/][A/F/][A/F/][A/F/] | 
[A/F/][A/F/][A/F/][A/F/] [A/F/][A/F/][A/F/][A/F/] [e/B/][e/B/][e/B/][e/B/] [e/d/][e/d/][e/d/][e/d/] | 
"G"[g/d/][g/d/][g/d/][g/d/] [g/d/][g/d/][g/d/][g/d/] [g/d/][g/d/][g/d/][g/d/] [g/d/][g/d/]B/B/ | 
[B/G/][B/G/][B/G/][B/G/] [BG]B Bc dB | "C"[e/c/][e/c/][e/c/][e/c/] cc (3dcA (3GED | 
C8 | z8 | z8 | z8 | z8 | z8 | z8 | z8 | z8 | z8 | z8 | 


